doc/_static/Ground.svg

<?xml version="1.0" encoding="UTF-8"?>
<svg xmlns="http://www.w3.org/2000/svg" xmlns:xlink="http://www.w3.org/1999/xlink" width="33.763pt" height="42.55pt" viewBox="0 0 33.763 42.55" version="1.1">
<defs>
<g>
<symbol overflow="visible" id="glyph0-0">
<path style="stroke:none;" d="M 5.5625 -0.296875 C 5.5625 -0.0976562 5.453125 0 5.234375 0 L 0.765625 0 C 0.660156 0 0.585938 -0.0195312 0.546875 -0.0625 C 0.515625 -0.101562 0.5 -0.164062 0.5 -0.25 L 0.5 -6.84375 C 0.5 -7 0.5625 -7.078125 0.6875 -7.078125 L 5.390625 -7.078125 C 5.503906 -7.078125 5.5625 -7.007812 5.5625 -6.875 Z M 5.046875 -0.734375 L 5.046875 -6.40625 C 5.046875 -6.519531 4.992188 -6.578125 4.890625 -6.578125 L 1.171875 -6.578125 C 1.066406 -6.578125 1.015625 -6.515625 1.015625 -6.390625 L 1.015625 -0.703125 C 1.015625 -0.640625 1.03125 -0.585938 1.0625 -0.546875 C 1.09375 -0.515625 1.15625 -0.5 1.25 -0.5 L 4.765625 -0.5 C 4.953125 -0.5 5.046875 -0.578125 5.046875 -0.734375 Z M 4.765625 -0.28125 L 0.703125 -6.671875 L 1.21875 -6.9375 L 5.359375 -0.328125 Z M 4.765625 -0.28125 "/>
</symbol>
<symbol overflow="visible" id="glyph0-1">
<path style="stroke:none;" d="M 0.859375 -7.078125 L 3.390625 -0.875 L 5.90625 -7.078125 L 6.640625 -7.078125 L 3.703125 0 L 3.078125 0 L 0.125 -7.078125 Z M 0.859375 -7.078125 "/>
</symbol>
<symbol overflow="visible" id="glyph0-2">
<path style="stroke:none;" d="M 0.890625 0 L 0.890625 -7.078125 L 1.578125 -7.078125 L 1.578125 0 Z M 0.890625 0 "/>
</symbol>
<symbol overflow="visible" id="glyph1-0">
<path style="stroke:none;" d="M 4.453125 -0.234375 C 4.453125 -0.078125 4.363281 0 4.1875 0 L 0.609375 0 C 0.523438 0 0.46875 -0.015625 0.4375 -0.046875 C 0.40625 -0.078125 0.390625 -0.128906 0.390625 -0.203125 L 0.390625 -5.46875 C 0.390625 -5.59375 0.441406 -5.65625 0.546875 -5.65625 L 4.296875 -5.65625 C 4.398438 -5.65625 4.453125 -5.597656 4.453125 -5.484375 Z M 4.03125 -0.59375 L 4.03125 -5.109375 C 4.03125 -5.210938 3.988281 -5.265625 3.90625 -5.265625 L 0.9375 -5.265625 C 0.851562 -5.265625 0.8125 -5.210938 0.8125 -5.109375 L 0.8125 -0.5625 C 0.8125 -0.507812 0.820312 -0.46875 0.84375 -0.4375 C 0.875 -0.40625 0.925781 -0.390625 1 -0.390625 L 3.8125 -0.390625 C 3.957031 -0.390625 4.03125 -0.457031 4.03125 -0.59375 Z M 3.8125 -0.21875 L 0.5625 -5.328125 L 0.984375 -5.546875 L 4.28125 -0.265625 Z M 3.8125 -0.21875 "/>
</symbol>
<symbol overflow="visible" id="glyph1-1">
<path style="stroke:none;" d="M 2.265625 0.0625 C 1.984375 0.0625 1.722656 0.00390625 1.484375 -0.109375 C 1.242188 -0.234375 1.035156 -0.394531 0.859375 -0.59375 C 0.691406 -0.789062 0.554688 -1.015625 0.453125 -1.265625 C 0.359375 -1.523438 0.3125 -1.789062 0.3125 -2.0625 C 0.3125 -2.351562 0.359375 -2.628906 0.453125 -2.890625 C 0.546875 -3.148438 0.675781 -3.378906 0.84375 -3.578125 C 1.019531 -3.773438 1.222656 -3.929688 1.453125 -4.046875 C 1.691406 -4.160156 1.957031 -4.21875 2.25 -4.21875 C 2.601562 -4.21875 2.910156 -4.128906 3.171875 -3.953125 C 3.429688 -3.773438 3.65625 -3.550781 3.84375 -3.28125 L 3.84375 -4.15625 L 4.328125 -4.15625 L 4.328125 0.015625 C 4.328125 0.398438 4.234375 0.722656 4.046875 0.984375 C 3.867188 1.242188 3.625 1.441406 3.3125 1.578125 C 3 1.710938 2.660156 1.78125 2.296875 1.78125 C 1.816406 1.78125 1.429688 1.691406 1.140625 1.515625 C 0.847656 1.347656 0.613281 1.125 0.4375 0.84375 L 0.765625 0.578125 C 0.929688 0.835938 1.148438 1.03125 1.421875 1.15625 C 1.691406 1.28125 1.984375 1.34375 2.296875 1.34375 C 2.566406 1.34375 2.8125 1.289062 3.03125 1.1875 C 3.257812 1.09375 3.441406 0.945312 3.578125 0.75 C 3.710938 0.5625 3.78125 0.316406 3.78125 0.015625 L 3.78125 -0.8125 C 3.625 -0.550781 3.40625 -0.335938 3.125 -0.171875 C 2.851562 -0.015625 2.566406 0.0625 2.265625 0.0625 Z M 2.421875 -0.390625 C 2.578125 -0.390625 2.726562 -0.421875 2.875 -0.484375 C 3.03125 -0.546875 3.171875 -0.625 3.296875 -0.71875 C 3.429688 -0.820312 3.539062 -0.929688 3.625 -1.046875 C 3.707031 -1.171875 3.757812 -1.296875 3.78125 -1.421875 L 3.78125 -2.703125 C 3.707031 -2.910156 3.59375 -3.09375 3.4375 -3.25 C 3.289062 -3.40625 3.125 -3.523438 2.9375 -3.609375 C 2.75 -3.703125 2.550781 -3.75 2.34375 -3.75 C 2.113281 -3.75 1.90625 -3.695312 1.71875 -3.59375 C 1.539062 -3.5 1.390625 -3.367188 1.265625 -3.203125 C 1.140625 -3.046875 1.039062 -2.863281 0.96875 -2.65625 C 0.90625 -2.457031 0.875 -2.257812 0.875 -2.0625 C 0.875 -1.832031 0.910156 -1.617188 0.984375 -1.421875 C 1.066406 -1.222656 1.175781 -1.046875 1.3125 -0.890625 C 1.457031 -0.734375 1.625 -0.609375 1.8125 -0.515625 C 2 -0.429688 2.203125 -0.390625 2.421875 -0.390625 Z M 2.421875 -0.390625 "/>
</symbol>
</g>
<clipPath id="clip1">
  <path d="M 0 0 L 33.761719 0 L 33.761719 42.550781 L 0 42.550781 Z M 0 0 "/>
</clipPath>
<clipPath id="clip2">
  <path d="M 13 38 L 25 38 L 25 42.550781 L 13 42.550781 Z M 13 38 "/>
</clipPath>
</defs>
<g id="surface1">
<g clip-path="url(#clip1)" clip-rule="nonzero">
<path style=" stroke:none;fill-rule:nonzero;fill:rgb(100%,100%,100%);fill-opacity:1;" d="M 0 42.550781 L 0 0 L 33.765625 0 L 33.765625 42.550781 Z M 0 42.550781 "/>
</g>
<path style="fill:none;stroke-width:0.3985;stroke-linecap:butt;stroke-linejoin:miter;stroke:rgb(0%,0%,0%);stroke-opacity:1;stroke-miterlimit:10;" d="M -0.00165625 -0.001875 L -0.00165625 -10.205 " transform="matrix(1,0,0,-1,19.029,28.545)"/>
<g clip-path="url(#clip2)" clip-rule="nonzero">
<path style="fill:none;stroke-width:0.797;stroke-linecap:butt;stroke-linejoin:miter;stroke:rgb(0%,0%,0%);stroke-opacity:1;stroke-miterlimit:10;" d="M -5.103219 -10.205 L 5.103813 -10.205 M -3.400094 -11.904219 L 3.400688 -11.904219 M -2.126656 -13.607344 L 2.12725 -13.607344 " transform="matrix(1,0,0,-1,19.029,28.545)"/>
</g>
<g style="fill:rgb(0%,0%,0%);fill-opacity:1;">
  <use xlink:href="#glyph0-1" x="3.321" y="29.45"/>
</g>
<g style="fill:rgb(0%,0%,0%);fill-opacity:1;">
  <use xlink:href="#glyph1-1" x="10.085" y="30.944"/>
</g>
<path style="fill:none;stroke-width:0.398;stroke-linecap:butt;stroke-linejoin:miter;stroke:rgb(0%,0%,0%);stroke-opacity:1;stroke-miterlimit:10;" d="M -0.0006875 -0.0011875 L 12.186812 -0.0011875 " transform="matrix(1,0,0,-1,3.321,34.116)"/>
<path style="fill:none;stroke-width:0.3985;stroke-linecap:butt;stroke-linejoin:miter;stroke:rgb(0%,0%,0%);stroke-opacity:1;stroke-miterlimit:10;" d="M -0.00165625 28.345781 L -0.00165625 14.173906 M -0.00165625 14.173906 L -0.00165625 -0.001875 " transform="matrix(1,0,0,-1,19.029,28.545)"/>
<path style="fill-rule:nonzero;fill:rgb(0%,0%,0%);fill-opacity:1;stroke-width:0.3985;stroke-linecap:butt;stroke-linejoin:miter;stroke:rgb(0%,0%,0%);stroke-opacity:1;stroke-miterlimit:10;" d="M 1.361625 -0.001875 C 1.361625 0.752031 0.75225 1.361406 -0.00165625 1.361406 C -0.751656 1.361406 -1.361031 0.752031 -1.361031 -0.001875 C -1.361031 -0.751875 -0.751656 -1.36125 -0.00165625 -1.36125 C 0.75225 -1.36125 1.361625 -0.751875 1.361625 -0.001875 Z M 1.361625 -0.001875 " transform="matrix(1,0,0,-1,19.029,28.545)"/>
<path style="fill-rule:nonzero;fill:rgb(0%,0%,0%);fill-opacity:1;stroke-width:0.3985;stroke-linecap:butt;stroke-linejoin:miter;stroke:rgb(0%,0%,0%);stroke-opacity:1;stroke-miterlimit:10;" d="M -0.00165625 15.662187 L -1.700875 15.662187 L -0.00165625 12.048906 L 1.701469 15.662187 Z M -0.00165625 15.662187 " transform="matrix(1,0,0,-1,19.029,28.545)"/>
<g style="fill:rgb(0%,0%,0%);fill-opacity:1;">
  <use xlink:href="#glyph0-2" x="22.548" y="15.277"/>
</g>
<g style="fill:rgb(0%,0%,0%);fill-opacity:1;">
  <use xlink:href="#glyph1-1" x="25.019" y="16.771"/>
</g>
<path style="fill:none;stroke-width:0.398;stroke-linecap:butt;stroke-linejoin:miter;stroke:rgb(0%,0%,0%);stroke-opacity:1;stroke-miterlimit:10;" d="M -0.001125 0.00159375 L 7.893406 0.00159375 " transform="matrix(1,0,0,-1,22.548,19.943)"/>
</g>
</svg>

<svg xmlns="http://www.w3.org/2000/svg" xmlns:xlink="http://www.w3.org/1999/xlink" width="45.017" height="56.733" viewBox="0 0 33.763 42.55"><defs><symbol overflow="visible" id="c"><path style="stroke:none" d="M.86-7.078 3.39-.875l2.516-6.203h.735L3.703 0h-.625L.125-7.078Zm0 0"/></symbol><symbol overflow="visible" id="e"><path style="stroke:none" d="M.89 0v-7.078h.688V0Zm0 0"/></symbol><symbol overflow="visible" id="d"><path style="stroke:none" d="M2.266.063c-.282 0-.543-.06-.782-.172A2.116 2.116 0 0 1 .86-.594a2.43 2.43 0 0 1-.406-.672 2.314 2.314 0 0 1-.14-.796c0-.29.046-.567.14-.829.094-.257.223-.488.39-.687.177-.195.38-.352.61-.469.238-.113.504-.172.797-.172.352 0 .66.09.922.266.258.18.484.402.672.672v-.875h.484V.016c0 .382-.094.707-.281.968a1.71 1.71 0 0 1-.734.594 2.576 2.576 0 0 1-1.016.203c-.48 0-.867-.09-1.156-.265A1.966 1.966 0 0 1 .437.844L.766.578c.164.258.382.453.656.578.27.125.562.188.875.188.27 0 .515-.055.734-.157.227-.093.41-.242.547-.437.133-.188.203-.434.203-.734v-.829a1.812 1.812 0 0 1-.656.641 1.704 1.704 0 0 1-.86.234Zm.156-.454c.156 0 .305-.03.453-.093.156-.063.297-.141.422-.235a1.63 1.63 0 0 0 .328-.328c.082-.125.133-.25.156-.375v-1.281a1.46 1.46 0 0 0-.344-.547 1.597 1.597 0 0 0-.5-.36 1.314 1.314 0 0 0-.593-.14c-.23 0-.438.055-.625.156-.18.094-.328.227-.453.39a1.798 1.798 0 0 0-.391 1.142c0 .23.035.445.11.64.081.2.19.375.328.531.144.157.312.282.5.375.187.086.39.125.609.125Zm0 0"/></symbol><clipPath id="a"><path d="M0 0h33.762v42.55H0Zm0 0"/></clipPath><clipPath id="b"><path d="M13 38h12v4.55H13Zm0 0"/></clipPath></defs><g clip-path="url(#a)"><path style="stroke:none;fill-rule:nonzero;fill:#fff;fill-opacity:1" d="M0 42.55V0h33.766v42.55Zm0 0"/></g><path style="fill:none;stroke-width:.3985;stroke-linecap:butt;stroke-linejoin:miter;stroke:#000;stroke-opacity:1;stroke-miterlimit:10" d="M-.002-.002v-10.203" transform="matrix(1 0 0 -1 19.029 28.545)"/><g clip-path="url(#b)"><path style="fill:none;stroke-width:.797;stroke-linecap:butt;stroke-linejoin:miter;stroke:#000;stroke-opacity:1;stroke-miterlimit:10" d="M-5.103-10.205H5.104m-8.504-1.7h6.8m-5.527-1.702h4.254" transform="matrix(1 0 0 -1 19.029 28.545)"/></g><use xlink:href="#c" x="3.321" y="29.45" style="fill:#000;fill-opacity:1"/><use xlink:href="#d" x="10.085" y="30.944" style="fill:#000;fill-opacity:1"/><path style="fill:none;stroke-width:.398;stroke-linecap:butt;stroke-linejoin:miter;stroke:#000;stroke-opacity:1;stroke-miterlimit:10" d="M0-.001h12.187" transform="matrix(1 0 0 -1 3.321 34.116)"/><path style="fill:none;stroke-width:.3985;stroke-linecap:butt;stroke-linejoin:miter;stroke:#000;stroke-opacity:1;stroke-miterlimit:10" d="M-.002 28.346V14.174m0 0V-.002" transform="matrix(1 0 0 -1 19.029 28.545)"/><path style="fill-rule:nonzero;fill:#000;fill-opacity:1;stroke-width:.3985;stroke-linecap:butt;stroke-linejoin:miter;stroke:#000;stroke-opacity:1;stroke-miterlimit:10" d="M1.362-.002a1.362 1.362 0 1 1-2.724.003 1.362 1.362 0 0 1 2.724-.003ZM-.002 15.662H-1.7L0 12.05l1.7 3.612Zm0 0" transform="matrix(1 0 0 -1 19.029 28.545)"/><use xlink:href="#e" x="22.548" y="15.277" style="fill:#000;fill-opacity:1"/><use xlink:href="#d" x="25.019" y="16.771" style="fill:#000;fill-opacity:1"/><path style="fill:none;stroke-width:.398;stroke-linecap:butt;stroke-linejoin:miter;stroke:#000;stroke-opacity:1;stroke-miterlimit:10" d="M-.001.002h7.894" transform="matrix(1 0 0 -1 22.548 19.943)"/></svg>
